src/3-context/bus--default.svg

<svg width="1300" height="1000" viewBox="0 0 1300 1000" fill="none" xmlns="http://www.w3.org/2000/svg"><path fill-rule="evenodd" clip-rule="evenodd" d="M539 900v-40H0v-7h539V220c0-11.046 8.954-20 20-20h278c11.046 0 20 8.954 20 20v633h31.474c8.853-54.995 56.534-97 114.026-97 57.49 0 105.17 42.005 114.03 97h65.08c4.18-10.349 6.1-21.811 5.18-33.752L1180.38 736H1140c-22.09 0-40-17.909-40-40s17.91-40 40-40h34.23l-9.69-126H927c-11.046 0-20-8.954-20-20V220c0-11.046 8.954-20 20-20h212.15l-1.82-23.752c-3.01-39.075-35.59-69.248-74.78-69.248H0v-7h1064.82c41.84 0 76.62 32.245 79.77 73.97l48.91 647c2.62 34.745-17.28 65.668-46.98 79.03H539Zm568.22 0a108.874 108.874 0 0 0 3.78-28.5c0-59.923-48.58-108.5-108.5-108.5-59.923 0-108.5 48.577-108.5 108.5 0 9.863 1.316 19.418 3.782 28.5h50.725c-5.408-9.249-8.507-20.013-8.507-31.5 0-34.518 27.982-62.5 62.5-62.5 34.52 0 62.5 27.982 62.5 62.5 0 11.487-3.1 22.251-8.51 31.5h50.73Zm-59.02 0c6.18-8.949 9.8-19.802 9.8-31.5 0-30.652-24.85-55.5-55.5-55.5-30.652 0-55.5 24.848-55.5 55.5 0 11.698 3.619 22.551 9.799 31.5h91.401Zm-157.657 0A115.702 115.702 0 0 1 887 871.5c0-3.881.191-7.717.565-11.5H857v40h33.543ZM850 900v-40H586v40h264Zm-271 0h-33V222c0-8.284 6.716-15 15-15h18v693Zm539-28.5c0-3.881-.19-7.717-.57-11.5h60.93c-12.17 23.007-36.01 39.066-63.89 39.961 2.3-9.104 3.53-18.64 3.53-28.461Zm22-208.5h34.77l5.08 66H1140c-18.23 0-33-14.775-33-33s14.77-33 33-33Zm-.31-456H929c-8.284 0-15 6.716-15 15v286c0 8.284 6.716 15 15 15h235l-24.31-316ZM586 773V207h249c8.284 0 15 6.716 15 15v551H586Zm0 40v-33h264v33H586Zm0 40v-33h264v33H586Z" fill="#000"/><path fill-rule="evenodd" clip-rule="evenodd" d="M0 523v7h469c11.046 0 20-8.954 20-20V220c0-11.046-8.954-20-20-20H0v7h212v316H0Zm219 0h248c8.284 0 15-6.716 15-15V222c0-8.284-6.716-15-15-15H219v316Z" fill="#000"/></svg>

<svg width="1300" height="1000" viewBox="0 0 1300 1000" fill="none" xmlns="http://www.w3.org/2000/svg">
<path fill-rule="evenodd" clip-rule="evenodd" d="M539 900V860H0V853H539V220C539 208.954 547.954 200 559 200H837C848.046 200 857 208.954 857 220V853H888.474C897.327 798.005 945.008 756 1002.5 756C1059.99 756 1107.67 798.005 1116.53 853H1181.61C1185.79 842.651 1187.71 831.189 1186.79 819.248L1180.38 736H1140C1117.91 736 1100 718.091 1100 696C1100 673.909 1117.91 656 1140 656H1174.23L1164.54 530H927C915.954 530 907 521.046 907 510V220C907 208.954 915.954 200 927 200H1139.15L1137.33 176.248C1134.32 137.173 1101.74 107 1062.55 107H0V100H1064.82C1106.66 100 1141.44 132.245 1144.59 173.97L1193.5 820.97C1196.12 855.715 1176.22 886.638 1146.52 900H539ZM1107.22 900C1109.68 890.918 1111 881.363 1111 871.5C1111 811.577 1062.42 763 1002.5 763C942.577 763 894 811.577 894 871.5C894 881.363 895.316 890.918 897.782 900H948.507C943.099 890.751 940 879.987 940 868.5C940 833.982 967.982 806 1002.5 806C1037.02 806 1065 833.982 1065 868.5C1065 879.987 1061.9 890.751 1056.49 900H1107.22ZM1048.2 900C1054.38 891.051 1058 880.198 1058 868.5C1058 837.848 1033.15 813 1002.5 813C971.848 813 947 837.848 947 868.5C947 880.198 950.619 891.051 956.799 900H1048.2ZM890.543 900C888.229 890.884 887 881.336 887 871.5C887 867.619 887.191 863.783 887.565 860H857V900H890.543ZM850 900V860H586V900H850ZM579 900H546V222C546 213.716 552.716 207 561 207H579V900ZM1118 871.5C1118 867.619 1117.81 863.783 1117.43 860H1178.36C1166.19 883.007 1142.35 899.066 1114.47 899.961C1116.77 890.857 1118 881.321 1118 871.5ZM1140 663H1174.77L1179.85 729H1140C1121.77 729 1107 714.225 1107 696C1107 677.775 1121.77 663 1140 663ZM1139.69 207H929C920.716 207 914 213.716 914 222V508C914 516.284 920.716 523 929 523H1164L1139.69 207ZM586 773V207H835C843.284 207 850 213.716 850 222V773H586ZM586 813V780H850V813H586ZM586 853V820H850V853H586Z" fill="black"/>
<path fill-rule="evenodd" clip-rule="evenodd" d="M0 523V530H469C480.046 530 489 521.046 489 510V220C489 208.954 480.046 200 469 200H0V207H212V523H0ZM219 523H467C475.284 523 482 516.284 482 508V222C482 213.716 475.284 207 467 207H219V523Z" fill="black"/>
</svg>
